!!!COM: Anon.
!!!OTL: Iam Vetus Littera
!!!SCA: Folio 272'-273'
!!!YOR: from 'Thirty-Five Conductus for Two and Three Voices', pp.59-63
!!!YOR: edited by Janet Knapp, Collegium Musicum No. 6, Yale University (1965)
!!!YOR: from the School of Notre Dame; circa 1170-1240
!!!YOO: Yale University
!!!YOY: 1965
**kern	**kern
*M6/8	*M6/8
=1	=1
4.G	4.d
4A	4c
8B-	8B-
=2	=2
4.A	4.c
4A	4c
8B-	8d
=3	=3
4.G	4.B-
4.F	4B-
.	8A
=4	=4
4.G	4.G
4F	4A
8D	8B-
=5	=5
4.F	4A
.	8F
4G	4.D
8B-	.
=6	=6
4.A	4.D
4A	4.r
8B-	.
=7	=7
4.G	4.B-
4.F	4B-
.	8A
=8	=8
4.G	4.G
4.r	4.r
=9	=9
4.B-	4.B-
4c	4A
8d	8G
=10	=10
8c	4.F
8B-	.
8A	.
4.G	4G
.	8A
=11	=11
4.F	4.c
4.r	4.r
=12	=12
4.G	4.d
4.B-	4.B-
=13	=13
8A	8d
8A	8d
8G	8c
4.F	4.B-
=14	=14
4.E	4.A
4E	4A
8F	8B-
=15	=15
8G	4.G
8F	.
8E	.
4.D	4G
.	8A
=16	=16
4.F	4.B-
4G	8A
.	8G
8B-	8F
=17	=17
4A	4c
8G	8B-
4.F	4.A
=18	=18
4.G	4.G
4.r	4.r
=19	=19
4.B-	4.B-
[4.A	4c
.	8d
=20	=20
2.A_	4.c
.	4.d
=21	=21
2.A]	16e
.	16d
.	16c
.	16B-
.	8A
.	4.G
=22	=22
4.B-	4.F
4.r	4.r
=23	=23
4.c	4.G
8B-	4A
8A	.
8G	8B-
=24	=24
4.F	4.c
4.r	4.r
=25	=25
4G	4d
8F	8c
4B-	4B-
8A	8c
=26	=26
4G	4d
8c	8F
4B-	4G
8A	8A
=27	=27
4G	4B-
8A	8A
8F	8c
8F	8c
8G	8B-
=28	=28
4.A	4.A
4A	4A
8B-	8B-
=29	=29
4d	4G
8c	8F
4c	4A
8A	8B-
=30	=30
4F	4c
8G	8d
4B-	4B-
8c	8c
=31	=31
8d	8B-
8c	8A
8A	8G
4G	4B-
8A	8c
=32	=32
4B-	8d
.	8c
8A	8B-
4G	4A
8G	8B-
=33	=33
4.F	4.A
4.F	4.A
=34	=34
4.G	4.G
4.r	4.r
=35	=35
4.B-	4.d
4A	4c
8B-	8e-
=36	=36
8c	8d
8B-	8c
8G	8d
4B-	4B-
8r	8r
=37	=37
4.c	4.f
4B-	8e-
.	8d
8c	8c
=38	=38
8e-	4B-
8d	.
8c	8A
4d	4G
8r	8r
=39	=39
4f	4B-
8g	8c
4f	8B-
.	8A
8e	8G
=40	=40
4d	4F
8c	8G
4B-	4B-
8r	8r
=41	=41
4.d	4.d
4d	4d
8e-	8c
=42	=42
8f	4B-
8e-	.
8c	8c
4B-	4B-
8c	8A
=43	=43
4d	4G
8c	8r
4A	4A
8G	8G
=44	=44
4B-	4G
8c	8F
8B-	8B-
8A	8A
8G	8B-
=45	=45
4F	4c
8r	8r
4B-	8e-
.	8d
8c	8c
=46	=46
8e-	8B-
8d	8A
8c	8G
4d	4A
8G	8B-
=47	=47
4.F	4.A
4.F	4.A
=48	=48
4.G	4.G
4.r	4.r
=49	=49
4A	4A
8B-	8G
4.c	4.F
=50	=50
4d	4G
8c	8A
4B-	4B-
8A	8c
=51	=51
4.G	4d
.	8F
4.r	8B-
.	8A
.	8G
=52	=52
4d	4F
8c	8G
4d	4.G
8B-	.
=53	=53
8d	4A
8c	.
8A	8B-
4.F	4.A
=54	=54
4.G	4.G
4.r	4.r
=55	=55
4.B-	4B-
.	8A
4c	4G
8B-	8F
=56	=56
4A	4A
8G	8B-
4F	4c
8G	8d
=57	=57
4A	4c
8G	8B-
4F	4A
8r	8r
=58	=58
4d	4G
8c	8A
4B-	4B-
8c	8c
=59	=59
8e-	8B-
8c	8A
8d	8G
4G	4d
8r	8r
=60	=60
4F	4c
8G	8B-
4A	4A
8B-	8B-
=61	=61
8c	8d
8B-	8c
8G	8B-
8A	8A
8A	8A
8B-	8B-
=62	=62
4A	4c
8G	8B-
4.F	4.A
=63	=63
4.G	4.G
4.r	4.r
=64	=64
4.d	4.A
4c	4G
8e-	8B-
=65	=65
8d	8A
8c	8G
8d	8A
4B-	4F
8c	8r
=66	=66
8e-	4.G
8d	.
8c	.
8d	4.F
8c	.
8B-	.
=67	=67
8c	4.G
8B-	.
8G	.
4B-	4F
8r	8r
=68	=68
4.d	4.G
4c	4.G
8e-	.
=69	=69
8d	4.G
8c	.
8d	.
4G	4d
8A	8r
=70	=70
8c	4.c
8B-	.
8A	.
8B-	4.B-
8A	.
8G	.
=71	=71
8B-	4.A
8A	.
8F	.
4F	4B-
8r	8r
=72	=72
4.A	4d
.	8e-
4G	4d
8B-	8c
=73	=73
8A	8B-
8G	8A
8A	8G
4F	4B-
8G	8c
=74	=74
8B-	8d
8A	8c
8G	8B-
4A	4A
8G	8B-
=75	=75
4.F	4.A
4.F	4.A
=76	=76
4.G	4.G
4.r	4.r
!! New Section
=77	=77
4c	4d
8r	8r
4c	8g
.	8e
8d	8d
=78	=78
4f	4c
8d	8d
4B-	4f
8e-	8G
=79	=79
8d	4A
8c	.
8B-	8G
4A	4A
8r	8r
=80	=80
4c	4F
8c	8G
4B-	4B-
8B-	8B-
=81	=81
4A	8A
.	8G
8A	8F
4G	4G
8r	8r
=82	=82
4d	4.d
8r	.
4c	8c
.	8B-
8d	8G
=83	=83
4f	4F
8d	8G
4B-	4B-
8e-	8B-
=84	=84
8d	4A
8B-	.
8A	8G
4G	4d
8r	8r
=85	=85
4B-	4F
8B-	8G
4A	4B-
8A	8B-
=86	=86
4G	4A
8G	8G
4F	4B-
8r	8r
=87	=87
4.d	4.G
4c	4A
8d	8G
=88	=88
4f	4F
8d	8G
4B-	4B-
8e-	8B-
=89	=89
8d	4A
8c	.
8A	8G
4F	4B-
8r	8r
=90	=90
4G	4c
8B-	8d
4A	4c
8G	8B-
=91	=91
8A	8A
8G	8G
8F	8A
4G	4G
8r	8r
=92	=92
4.F	4.c
4.G	4B-
.	8A
=93	=93
4.B-	4.G
4.c	4.F
=94	=94
8B-	4G
8A	.
8G	8A
4.F	4.B-
=95	=95
4.G	4A
.	8G
4A	4F
8r	8r
=96	=96
4.B-	4.F
4c	4G
8d	8A
=97	=97
4.c	4.G
4c	4.F
8A	.
=98	=98
4.G	4.G
4G	4.r
8A	.
=99	=99
4.B-	4.F
4A	4A
8G	8B-
=100	=100
4.F	4.c
4.r	4c
.	8d
=101	=101
4.B-	4.f
4.c	8e
.	8d
.	8c
=102	=102
4.d	4.B-
4.en	4A
.	8G
=103	=103
4f	4F
8g	8G
4f	4B-
8e-	8B-
=104	=104
4d	4A
8c	8G
4B-	4B-
8r	8A
=105	=105
4c	4G
8A	8F
4G	4G
8B-	8B-
=106	=106
4A	4A
8G	8B-
4F	4c
8r	8r
=107	=107
4.B-	8f
.	8f
.	8e-
4.c	4.d
=108	=108
4.e-	4.B-
4e-	4B-
8d	8A
=109	=109
4.d	4.G
4d	4.B-
8B-	.
=110	=110
4.G	4.d
4.r	4.r
=111	=111
4.A	8e
.	8e
.	8d
4.B-	4.d
=112	=112
4.c	4.c
4c	4c
8B-	8B-
=113	=113
4A	4c
8G	8B-
4.F	4.A
=114	=114
4.G	4.G
4.r	4.r
=115	=115
4F	4f
8G	8g
4B-	4f
8B-	8e
=116	=116
4A	4d
8G	8c
4B-	4B-
8r	8r
=117	=117
4B-	4d
8c	8c
4B-	4d
8A	8F
=118	=118
4G	4G
8G	8A
4F	4B-
8r	8r
=119	=119
4F	4f
8G	8g
4B-	4f
8B-	8e-
=120	=120
4A	4d
8G	8c
4B-	4B-
8r	8r
=121	=121
4d	4A
8c	8G
4B-	4B-
8A	8c
=122	=122
4G	4B-
8F	8A
4G	4G
8r	8r
=123	=123
4.d	4.A
4.r	4.r
=124	=124
4.c	4.c
4d	4B-
8e-	8A
=125	=125
4.d	4G
.	8A
4d	4.B-
8B-	.
=126	=126
8c	4A
8B-	.
8A	8F
4.G	4.G
=127	=127
4.B-	4.F
4B-	4.r
8c	.
=128	=128
4.d	4.G
4.r	4.r
=129	=129
4.c	4.B-
4d	4A
8e-	8F
=130	=130
4.d	4.G
4d	4.F
8B-	.
=131	=131
8c	4.B-
8B-	.
8A	.
4.G	4.c
=132	=132
4.G	4.d
4.r	4d
.	8e
=133	=133
4.F	4f
.	8e
4.G	4.d
=134	=134
4.B-	4.B-
4.c	4.A
=135	=135
4.B-	4.G
4A	4A
8r	8r
=136	=136
4B-	4G
8A	8A
4G	4B-
8G	8c
=137	=137
4A	4B-
8G	8A
4F	4B-
8r	8r
=138	=138
4d	4A
8d	8G
4.c	4F
.	8G
=139	=139
4B-	4B-
8A	8c
4G	4d
8r	8r
=140	=140
4B-	4f
8A	8e
4G	4d
8G	8c
=141	=141
4A	4B-
8G	8B-
4F	4c
8r	8r
=142	=142
4d	4d
8e	8c
4d	8B-
.	8A
8c	8G
=143	=143
4B-	4B-
8A	8c
4G	4d
8r	8r
=144	=144
4B-	4f
8c	8e
8B-	4d
8A	.
8G	8c
=145	=145
4.F	4B-
.	8A
4G	4G
8r	8r
=146	=146
4.d	4.d
4.e	4.c
=147	=147
4.f	4.B-
4f	4B-
8e	8A
=148	=148
4.c	4.G
4.B-	4.F
=149	=149
4.A	4.A
4A	4A
8B-	8G
=150	=150
4c	4.G
8B-	.
4.A	4.F
=151	=151
4.G	4.G
4G	4G
8A	8A
=152	=152
4.B-	4B-
.	8A
4B-	4.B-
8G	.
=153	=153
4.G	4c
.	8d
4.r	4.d
=154	=154
[2.F	4f
.	8e
.	4f
.	8e
=155	=155
2.F]	8f
.	16f
.	16e
.	8d
.	4c
.	8r
=156	=156
[2.A	8d
.	8e
.	8d
.	4e
.	8d
=157	=157
2.A]	8e
.	16e
.	16d
.	8c
.	4B-
.	8r
=158	=158
[2.c	4f
.	8e
.	4f
.	8e
=159	=159
4.c_	8f
.	16f
.	16e
.	8d
4c]	4c
8B-	8r
=160	=160
[2.A	8d
.	8e
.	8d
.	4e
.	8d
=161	=161
4.A_	8e
.	16e
.	16d
.	8c
4A]	8d
.	8e
8G	8f
=162	=162
2.c	16g
.	16f
.	16e
.	16d
.	16c
.	16B-
.	4.A
=163	=163
4.d	4.G
4.r	4.r
=164	=164
4.f	4.B-
4e	4c
8d	8d
=165	=165
4.c	4.f
4c	4e
8G	8d
=166	=166
4.B-	4.B-
4A	4A
8G	8B-
=167	=167
4.F	4.c
4.r	4.r
=168	=168
4.f	4.B-
4e	4A
8d	8G
=169	=169
4.c	4F
.	8G
4c	4.B-
8G	.
=170	=170
4.B-	4A
.	8G
4B-	4.F
8A	.
=171	=171
4.G	4.G
4.r	4.r
=172	=172
4.B-	4.B-
4.A	4c
.	8d
=173	=173
4.B-	4.f
4c	4e
8d	8d
=174	=174
4.F	4.c
4F	4c
8G	8B-
=175	=175
4.A	4.A
4.r	4.r
=176	=176
4.F	4.B-
4G	4A
8A	8G
=177	=177
4B-	4.F
8A	.
4G	4.G
8A	.
=178	=178
4.B-	4B-
.	8A
4A	4.B-
8G	.
=179	=179
4.F	4.c
4.r	4.r
=180	=180
4.B-	4.B-
4.A	4c
.	8d
=181	=181
4.B-	4.f
4c	4e
8d	8d
=182	=182
4.F	4.c
4F	4c
8G	8B-
=183	=183
4.A	4.A
4.r	4.r
=184	=184
4.F	4.B-
4G	4A
8A	8G
=185	=185
4B-	4.F
8A	.
4G	4.G
8A	.
=186	=186
4.B-	4c
.	8B-
4A	4B-
8F	8A
=187	=187
4.G	4.G
4.r	4.r
=188	=188
4.B-	4.B-
4.A	4.c
=189	=189
4.B-	4B-
.	8c
4G	4d
8A	8c
=190	=190
4.B-	4.B-
4A	4A
8G	8G
=191	=191
4.c	4.F
4A	4G
8F	8A
=192	=192
4.F	4.c
4.r	4.r
=193	=193
4.B-	4.B-
4.A	4c
.	8d
=194	=194
4.B-	4f
.	8e
4G	4d
8A	8c
=195	=195
4.B-	4.B-
4A	4A
8G	8G
=196	=196
4.B-	4.F
4A	4G
8F	8A
=197	=197
4.B-	4.F
4B-	4.r
8A	.
=198	=198
4.G	4.B-
4.F	4B-
.	8A
=199	=199
4.G	4.G
4.r	4.r
=200	=200
4B-	4f
8c	8e
4d	4d
8c	8c
=201	=201
4d	4B-
8c	8A
4B-	4B-
8r	8r
=202	=202
4A	4c
8B-	8B-
4c	4A
8B-	8G
=203	=203
4c	4F
8A	8A
4F	4c
8r	8r
=204	=204
4B-	4f
8c	8e
4d	4d
8c	8c
=205	=205
4d	4B-
8c	8A
4B-	4B-
8r	8r
=206	=206
4A	4c
8B-	8B-
4c	4A
8B-	8G
=207	=207
4c	4F
8A	8A
4G	4c
8B-	8d
=208	=208
4A	4c
8G	8B-
4.F	4.A
=209	=209
4.G;	4.G;
4.r	4.r
==	==
*-	*-
!!!ENC: David Huron
!!!YEC: Copyright 1987, David Huron
!!!EEV: 1.0
